src/16/places/folder-torrent.svg

<svg xmlns="http://www.w3.org/2000/svg" width="16" height="16" version="1.1" viewBox="0 0 16 16">
 <defs>
  <style id="current-color-scheme" type="text/css">
   .ColorScheme-Text { color:#727272; } .ColorScheme-Highlight { color:#5294e2; }
  </style>
 </defs>
 <path style="fill:currentColor" class="ColorScheme-Text" d="m 8,0 a 8,8 0 0 0 -8,8 8,8 0 0 0 8,8 8,8 0 0 0 5.277344,-2 L 8,14 A 6,6 0 0 1 2,8 6,6 0 0 1 8,2 l 0,1 a 5,5 0 0 0 -5,5 5,5 0 0 0 5,5 l 3.308594,0 2.927734,0 a 8,8 0 0 0 0.683594,-1 L 8,12 C 5.790861,12 4,10.209139 4,8 4,5.790861 5.790861,4 8,4 8.337519,4.00126 8.673523,4.045229 9,4.1308594 L 9,5.1757812 C 8.679075,5.0608002 8.3409,5.0014 8,5 6.343146,5 5,6.343146 5,8 c 0,1.656854 1.343146,3 3,3 l 7.410156,0 a 8,8 0 0 0 0.324219,-1 L 8,10 A 2,2 0 0 1 6,8 2,2 0 0 1 8,6 2,2 0 0 1 9.730469,7 L 8,7 A 1,1 0 0 0 7,8 1,1 0 0 0 8,9 l 7.929688,0 a 8,8 0 0 0 0.07031,-1 8,8 0 0 0 -8,-8 z"/>
</svg>

<svg xmlns="http://www.w3.org/2000/svg" width="16" height="16"><defs><style id="current-color-scheme" type="text/css"></style></defs><path d="M8 0a8 8 0 0 0-8 8 8 8 0 0 0 8 8 8 8 0 0 0 5.277-2H8a6 6 0 0 1-6-6 6 6 0 0 1 6-6v1a5 5 0 0 0-5 5 5 5 0 0 0 5 5H14.236a8 8 0 0 0 .684-1H8a4 4 0 1 1 0-8 4 4 0 0 1 1 .13v1.046A3.001 3.001 0 0 0 8 5a3 3 0 0 0 0 6h7.41a8 8 0 0 0 .324-1H8a2 2 0 0 1-2-2 2 2 0 0 1 2-2 2 2 0 0 1 1.73 1H8a1 1 0 0 0-1 1 1 1 0 0 0 1 1h7.93A8 8 0 0 0 16 8a8 8 0 0 0-8-8z" fill="currentColor" color="#727272"/></svg>
